X:1
T:Si dolci son
T:Si dolci son
T:Giovanni Battista Moscaglia
T:Source : Melodia Olympia---Anvers---P.Phalesio & G.Bellero---1591. Editor : André Vierendeels (11/01/14).
C:Giovanni Battista Moscaglia
%%score [ 1 2 [ 3 4 ] ]
L:1/8
Q:1/4=80
M:4/4
K:C
V:1 treble nm="Canto" snm="C"
V:2 treble nm="Alto" snm="A"
V:3 treble-8 nm="Tenor 1" snm="T 1"
V:4 treble-8 nm="Tenor 2" snm="T 2"
V:1
 G4 d4- | d2 e2 d2 c2 | B4 A4 | z2 G2 B2 c2 | d8 | d2 d2 d2 cB | A2 c2 d4 | G4 c4 | B4 d2 c2- | %9
w: Si dol-|* ci son gli|sguar- di|e si so-|a-|vi, e si _ _|_ so- a-|vi, de|bei vo- str'oc-|
 c2 B2 A4 | B2 d2 e4 | c2 d4 c2 | B2 c4 B2 | c4 e4 | d2 e2 c3 d | e4 d2 B2- | B2 c4 d2- | %17
w: * chi'ar- den-|ti, de bei|vo- str'oc- chi'ar-|den- * *|ti, che|ben ch'hab- bia- *|* te del|_ mio cor|
 d2 e2 d4 | e4 A4 | B4 ^c2 d2 | d2 ^cB c4 | d8 | z8 | z8 | d8 | c8 | B4 d4 | e4 ^c4 | d8 | d8 | %30
w: _ le chia-|vi, del|mio cor le|chia- * * *|vi,|||dol-|ci|mi son|_ per|voi|gli'a-|
 d4 e4 | d8 | c8 | z8 | z2 e2 f2 d2- | dc _B2 A4 | B4 d2 dd | B2 c2 A4 | G4 z4 | d2 dd B2 c2 | A8 | %41
w: spri tor-|men-|ti,||per- o ca-|* ra mia vi-|ta, da- te- mi|sem- pre'a- i-|ta,|da- te- mi sem- pre'a-|i-|
 B4 z2 B2 | c2 e3 d ^c2 | d4 A4 | z2 e2 f2 d2- | dc _B2 A4 | B4 d2 dd | B2 c2 A4 | G4 z4 | %49
w: ta, per-|o ca- ra mia|vi- ta,|per- o ca-|* ra mia vi-|ta, da- te- mi|sem- pre'a- i-|ta,|
 d2 dd B2 c2 | A8 | B8 |] %52
w: da- te- mi sem- pre'a-|i-|ta.|
V:2
 z4 D4 | G6 A2 | G2 G2 ^F4 | G4 z2 E2 | G2 G2 A4 | B4 G2 A2- | A2 G2 F4 | E4 G4 | G4 A2 G2- | %9
w: dol-|ci son|gli sguar- di|e si|so- a- vi,|e si so-|_ a- vi,|de bei|vo- str'oc- chi'ar-|
 G2 G2 ^F4 | G2 B2 c4 | A2 _B4 G2 | G8 | G4 z2 c2 | B2 c2 A3 B | c2 BA B2 d2 | G4 A4 | %17
w: * den- ti,|de bei vo-|str'oc- chi'ar- den-|ti,|che ben|ch'hab- bia- te *|* * * * del|mio cor|
 B2 c2 c2 B2 | c4 c2 A2 | G3 F E2 A2 | A8 | A8- | A8 | z4 G4- | G4 F4- | F4 E4 | G4 G4 | G4 A4 | %28
w: le chia- vi, *|del mio cor|le _ _ chia-|vi,|dol-|_|ci|* mi|_ son|per voi|gli'a- spri|
 A4 _B4 | A8 | B4 c4- | c4 B4 | c8 | z8 | z2 A2 A2 _B2- | BA G2 ^F4 | G4 D2 DD | G2 E2 ^F4 | %38
w: tor- men-|ti,|||per-||o ca- ra|* mia vi- ta,|da- te- mi sem-|pre'a- i- ta,|
 G4 z4 | D2 DD G3 E | ^F2 G4 F2 | G4 z2 G2 | A2 c3 B A2 | A2 D2 z4 | z2 A2 A2 _B2- | BA G2 ^F4 | %46
w: de-|te- mi sem- pre'a- i-|ta, * *|per- o|ca- ra mia vi-|ta, per-|o ca- ra|* mia vi- ta,|
 G4 D2 DD | G2 E2 ^F4 | G4 z4 | D2 DD G3 E | ^F2 G4 F2 | G8 |] %52
w: da- te- mi sem-|pre'a- i- ta,|da-|te- mi sem- pre'a- i-|ta. * *|Si|
V:3
 z8 | z8 | G4 d4- | d2 e2 d2 c2 | B4 A4 | z2 G2 B2 c2 | dc c4 B2 | c4 e4 | d4 f2 e2- | e2 d2 d4 | %10
w: ||dol- ci|* son gli sguar-|di e|si so- a-|vi, * * *|de bei|vo- str'oc- chi'ar-|* den- ti,|
 d2 g2 g4 | f2 f4 e2 | d2 e2 d4 | e4 c4 | g2 e2 f4 | cd ef g4 | e4 f4 | g2 c2 g4 | c2 c4 d2- | %19
w: de bei vo-|str'oc- chi'ar- den-|ti, * *|che ben|ch'hab- bia- te|* * * * del|mio cor|le chia- v,|del mio cor|
 d2 e4 f2 | f2 ed e4 | f4 f4- | f4 e4- | e4 d4 | a4 a4 | a8 | z4 d4 | e8 | ^f4 g4- | g4 ^f4 | g8- | %31
w: _ le chia-|vi, * * *|dol- ci|* mi|_ son|per voi|gli'a-|spri|tor-|men- ti,||per-|
 g8 | z4 e4 | f2 a3 g f2 | e4 d4- | d4 z4 | d2 dd B2 B2 | e2 A2 d2 dd | B2 c2 A4 | B4 d2 e2 | d8 | %41
w: _|o|ca- ra mia vi-|ta, da-|_|te- mi sem- pre'a- i-|ta, da- te- mi sem-|pre'a- i- ta,|sem- pre'a- i-|ta,|
 d8 | z4 z2 e2 | f2 a3 g f2 | e4 d4- | d4 z4 | d2 dd B2 B2 | e2 A2 d2 dd | B2 c2 A4 | B4 d2 e2 | %50
w: per-|o|ca- ra mia vi-|ta, da-|_|te- mi sem- pre'a- i-|ta, da- te- mi sem-|pre'a- i- ta,|sem- 'a- i-|
 d8 | d8 |] %52
w: ta,|pe-|
V:4
 z8 | z8 | z4 D4 | G6 A2 | G2 G2 ^F4 | G4 z2 A2 | F2 E2 D4 | C4 C4 | G4 D2 E2- | E2 G2 D4 | %10
w: ||dol-|ci son|gli sguar- di|e si|so- a- vi,|de bei|vo- str'oc- chi'ar-|* den- ti|
 G2 G2 c4 |"^b" F2 B4 c2 | G8 | C8 | z8 | z8 | z8 | z8 | z4 F4 | G4 A2 D2 | A8 | D4 d4- | d4 c4- | %23
w: de bei vo-|str'oc- chi'ar- den-|ti,|del|||||mio|cor le chia-|vi,|dol- ci|* mi|
 c4 B4 | d8 | A8 | e4 B4 | c4 A4 | d8- | d8 | G8- | G8 | z4 A4 | d2 f3 e d2 | ^c4 d4 | %35
w: _ son|per|voi|gli'a- spri|tor- men-|ti,||per-|_|o|ca- ra mia vi-|ta, da-|
 G2 GG d2 D2 | G4 G4 | z4 D2 DD | G2 E2 ^F4 | G2 G4 C2 | D8 | G8 | z4 z2 A2 | d2 f3 e d2 | ^c4 d4 | %45
w: te- mi sem- pre'a- i-|ta, da-|te- mi sem-|pre'a- i- ta,|sem- pre'a- i-|ta,|per-|o|ca- ra mia vi-|ta, de-|
 G2 GG d2 D2 | G4 G4 | z4 D2 DD | G2 E2 ^F4 | G2 G4 C2 | D8 | G8 |] %52
w: te- mi sem- pre'a- i-|ta, da-|te- mi sem-|pre'a- i- ta,|sem- pre'a- i-|ta||

